; generated by PrusaSlicer 2.5.0+win64 on 2022-10-19 at 15:06:08 UTC


;
;

;
;
; 

; external perimeters extrusion width = 0.45mm
; perimeters extrusion width = 0.45mm
; infill extrusion width = 0.45mm
; solid infill extrusion width = 0.45mm
; top infill extrusion width = 0.40mm
; first layer extrusion width = 0.42mm

M73 P0 R27
M201 X2500 Y2500 Z400 E5000 ; sets maximum accelerations, mm/sec^2
M203 X180 Y180 Z12 E80 ; sets maximum feedrates, mm / sec
M204 P1250 R1250 T2500 ; sets acceleration (P, T) and retract acceleration (R), mm/sec^2
M205 X8.00 Y8.00 Z2.00 E10.00 ; sets the jerk limits, mm/sec
M205 S0 T0 ; sets the minimum extruding and travel feed rate, mm/sec
M107
;TYPE:Custom
M862.3 P "MINI" ; printer model check
G90 ; use absolute coordinates
M83 ; extruder relative mode
M104 S170 ; set extruder temp for bed leveling
M140 S60 ; set bed temp
M109 R170 ; wait for bed leveling temp
M190 S60 ; wait for bed temp
M204 T1250 ; set travel acceleration
G28 ; home all without mesh bed level
G29 ; mesh bed leveling 
M204 T2500 ; restore travel acceleration
M104 S215 ; set extruder temp
G92 E0
G1 Y-2 X179 F2400
G1 Z3 F720
M109 S215 ; wait for extruder temp

; intro line
G1 X170 F1000
G1 Z0.2 F720
G1 X110 E8 F900
G1 X40 E10 F700
G92 E0

M221 S95 ; set flow
G21 ; set units to millimeters
G90 ; use absolute coordinates
M83 ; use relative distances for extrusion
M900 K0.2 ; Filament gcode LA 1.5
; ; Filament gcode LA 1.0
M107
;LAYER_CHANGE
;Z:0.2
;HEIGHT:0.2
;BEFORE_LAYER_CHANGE
G92 E0.0
;0.2


M73 P0 R26
G1 E-3.2 F4200
G1 Z.2 F720
;AFTER_LAYER_CHANGE
;0.2
G1 Z.4
G1 X43.968 Y83.258 F9000
G1 Z.2 F720
M73 P1 R26
G1 E3.2 F2400
M204 P800
;TYPE:Skirt/Brim
;WIDTH:0.42
G1 F1200
G1 X44.486 Y82.984 E.01839
G1 X45.829 Y82.635 E.04351
G1 X47.237 Y82.54 E.04422
G1 X110.093 Y82.54 E1.97081
G1 X134.726 Y82.679 E.77239
G1 X136.031 Y83.078 E.04278
G1 X137.067 Y84.726 E.06101
G1 X138.354 Y93.885 E.29
G1 X138.377 Y94.944 E.03322
G1 X137.985 Y96.251 E.04278
G1 X136.94 Y97.127 E.04278
G1 X136.013 Y97.321 E.02969
G1 X110.149 Y97.46 E.81095
G1 X47.377 Y97.454 E1.96816
G1 X46.337 Y97.336 E.03283
G1 X45.526 Y97.126 E.02625
G1 X44.569 Y96.714 E.03267
G1 X43.824 Y96.229 E.02789
G1 X43.171 Y95.624 E.0279
G1 X42.623 Y94.894 E.02861
G1 X42.206 Y94.04 E.02982
G1 X41.966 Y93.114 E.02999
G1 X41.624 Y86.913 E.19472
G1 X41.679 Y86.186 E.02285
G1 X41.894 Y85.403 E.02546
G1 X42.421 Y84.459 E.0339
G1 X43.332 Y83.593 E.03942
G1 X43.915 Y83.286 E.02065
M204 P1000
; printing object Bodacious Fulffy-Jaagub.stl id:0 copy 0
G1 E-2.24 F4200
;WIPE_START
G1 F7200
G1 X44.486 Y82.984 E-.35826
G1 X45.453 Y82.733 E-.55375
;WIPE_END
G1 E-.048 F4200
G1 Z.4 F720
G1 X91.042 Y85.999 F9000
G1 Z.2 F720
G1 E3.2 F2400
M204 P800
;TYPE:Perimeter
;WIDTH:0.561846
G1 F1200
G1 X91.622 Y86.232 E.02696
G1 X91.634 Y86.755 E.02257
;WIDTH:0.54248
G1 X91.642 Y88.015 E.05235
;WIDTH:0.541601
G1 X91.689 Y88.195 E.0077
;WIDTH:0.501067
G1 X91.736 Y88.374 E.00707
;WIDTH:0.460533
G1 X91.784 Y88.554 E.00645
;WIDTH:0.419999
G1 X91.984 Y88.975 E.01463
G1 X91.516 Y88.938 E.01471
G1 X90.751 Y88.985 E.02402
G1 X90.822 Y88.892 E.00365
G1 X91.012 Y88.44 E.01538
;WIDTH:0.460826
G1 X91.054 Y88.271 E.00604
;WIDTH:0.501653
G1 X91.095 Y88.103 E.00663
;WIDTH:0.54248
G1 X91.137 Y87.934 E.00722
G1 X91.135 Y86.757 E.04889
;WIDTH:0.546016
G1 X91.131 Y86.668 E.00373
;WIDTH:0.561846
G1 X91.05 Y86.059 E.0265
M204 P1000
G1 E-2.24 F4200
;WIPE_START
G1 F7200
G1 X91.622 Y86.232 E-.33127
G1 X91.634 Y86.755 E-.2899
G1 X91.637 Y87.279 E-.29082
;WIPE_END
G1 E-.048 F4200
G1 Z.4 F720
G1 X91.485 Y93.187 F9000
G1 Z.2 F720
G1 E3.2 F2400
M204 P800
;WIDTH:0.421313
G1 F1200
G1 X91.771 Y93.376 E.0108
G1 X91.792 Y93.504 E.00411
G1 X91.671 Y93.696 E.00714
G1 X91.389 Y93.901 E.01097
G1 X91.099 Y94.012 E.00976
G1 X91.358 Y93.563 E.0163
G1 X91.466 Y93.243 E.0106
M204 P1000
G1 E-2.24 F4200
;WIPE_START
G1 F7200
G1 X91.771 Y93.376 E-.18455
G1 X91.792 Y93.504 E-.07234
G1 X91.671 Y93.696 E-.12578
G1 X91.389 Y93.901 E-.1932
G1 X91.099 Y94.012 E-.17182
G1 X91.247 Y93.755 E-.1643
;WIPE_END
G1 E-.048 F4200
G1 Z.4 F720
G1 X86.309 Y86.486 F9000
G1 Z.2 F720
G1 E3.2 F2400
M204 P800
;WIDTH:0.469723
G1 F1200
G1 X86.107 Y86.809 E.01352
G1 X85.926 Y87.208 E.01554
;WIDTH:0.484305
G1 X85.709 Y87.814 E.02362
;WIDTH:0.52232
G1 X85.613 Y88.251 E.01785
;WIDTH:0.560335
G1 X85.516 Y88.688 E.01926
;WIDTH:0.593908
G1 X85.446 Y89.331 E.02962
;WIDTH:0.597654
G1 X85.428 Y90.022 E.03186
G1 X85.451 Y90.712 E.03186
;WIDTH:0.588587
G1 X85.53 Y91.394 E.03114
;WIDTH:0.554589
G1 X85.693 Y92.29 E.03876
G1 X85.987 Y93.123 E.03759
G1 X85.732 Y92.878 E.01506
G1 X85.318 Y92.243 E.03222
;WIDTH:0.557089
G1 X85.009 Y91.386 E.03895
;WIDTH:0.597821
G1 X84.888 Y90.619 E.03586
;WIDTH:0.606092
G1 X84.87 Y89.645 E.04561
G1 X84.924 Y89.03 E.0289
;WIDTH:0.591785
G1 X85.108 Y88.17 E.04015
;WIDTH:0.547938
G1 X85.225 Y87.864 E.01375
;WIDTH:0.510635
G1 X85.342 Y87.558 E.01273
;WIDTH:0.473332
G1 X85.656 Y87.068 E.02083
;WIDTH:0.469723
G1 X85.919 Y86.788 E.01365
G1 X86.261 Y86.523 E.01536
M204 P1000
G1 E-2.24 F4200
;WIPE_START
G1 F7200
G1 X86.107 Y86.809 E-.18022
G1 X85.926 Y87.208 E-.24271
G1 X85.709 Y87.814 E-.35667
G1 X85.658 Y88.047 E-.13241
;WIPE_END
G1 E-.048 F4200
G1 Z.4 F720
G1 X90.567 Y85.842 F9000
G1 Z.2 F720
G1 E3.2 F2400
M204 P800
;TYPE:External perimeter
;WIDTH:0.420353
G1 F1200
G1 X90.516 Y85.738 E.00365
G1 X90.408 Y85.683 E.0038
;WIDTH:0.419408
G1 X89.89 Y85.608 E.01637
G1 X89.27 Y85.578 E.01944
;WIDTH:0.415727
G1 X88.722 Y85.601 E.01698
;WIDTH:0.416728
G1 X88.215 Y85.667 E.01589
;WIDTH:0.427266
G1 X87.731 Y85.794 E.01601
;WIDTH:0.455373
G1 X87.476 Y85.921 E.00976
;WIDTH:0.483479
G1 X87.221 Y86.047 E.01043
;WIDTH:0.526175
G1 X86.996 Y86.223 E.01147
;WIDTH:0.568871
G1 X86.771 Y86.399 E.01248
G1 X86.72 Y86.486 E.00439
;WIDTH:0.527173
G1 X86.582 Y86.772 E.01281
;WIDTH:0.491449
G1 X86.443 Y87.058 E.01186
;WIDTH:0.455724
G1 X86.305 Y87.344 E.01092
;WIDTH:0.419999
G1 X86.112 Y87.887 E.01804
G1 X85.962 Y88.726 E.02674
G1 X85.91 Y89.343 E.01942
G1 X85.893 Y90.01 E.02091
G1 X85.911 Y90.673 E.02081
G1 X85.968 Y91.318 E.02028
G1 X86.114 Y92.148 E.02645
G1 X86.372 Y92.903 E.02499
G1 X86.719 Y93.495 E.02153
;WIDTH:0.442434
G1 X87.039 Y93.856 E.01602
;WIDTH:0.448303
G1 X87.246 Y93.987 E.00829
G1 X87.789 Y94.247 E.02027
;WIDTH:0.427228
G1 X88.366 Y94.39 E.01901
;WIDTH:0.416364
G1 X89.232 Y94.446 E.02694
;WIDTH:0.418153
G1 X89.667 Y94.409 E.01363
;WIDTH:0.428825
G1 X90.101 Y94.311 E.01428
;WIDTH:0.447884
G1 X90.509 Y94.106 E.01538
G1 X90.844 Y93.732 E.0169
;WIDTH:0.419999
G1 X91.063 Y93.301 E.01516
G1 X91.191 Y92.734 E.0182
G1 X91.334 Y92.756 E.00455
G1 X91.71 Y92.869 E.01231
G1 X92.074 Y93.134 E.01413
G1 X92.17 Y93.333 E.0069
G1 X92.182 Y93.531 E.00623
G1 X92.096 Y93.789 E.00853
G1 X91.856 Y94.055 E.01123
G1 X91.424 Y94.293 E.01547
;WIDTH:0.427259
G1 X90.929 Y94.474 E.01682
;WIDTH:0.442339
G1 X90.344 Y94.639 E.02021
G1 X89.76 Y94.776 E.01991
;WIDTH:0.419251
G1 X89.241 Y94.819 E.01631
;WIDTH:0.429722
G1 X88.728 Y94.808 E.01649
G1 X88.004 Y94.705 E.02353
;WIDTH:0.42863
G1 X87.524 Y94.556 E.0161
;WIDTH:0.448303
G1 X86.496 Y94.073 E.03831
;WIDTH:0.419999
G1 X86.004 Y93.754 E.01838
G1 X85.394 Y93.172 E.02644
G1 X84.928 Y92.467 E.0265
G1 X84.602 Y91.632 E.0281
G1 X84.424 Y90.691 E.03003
G1 X84.397 Y89.645 E.0328
G1 X84.457 Y89.022 E.01962
G1 X84.705 Y87.989 E.03333
G1 X85.068 Y87.208 E.02701
G1 X85.379 Y86.774 E.01673
G1 X85.766 Y86.379 E.01733
;WIDTH:0.469623
G1 X86.004 Y86.242 E.00978
;WIDTH:0.519247
G1 X86.243 Y86.104 E.01091
;WIDTH:0.568871
G1 X86.71 Y85.845 E.02336
;WIDTH:0.530765
G1 X86.939 Y85.724 E.01049
;WIDTH:0.492658
G1 X87.167 Y85.602 E.00967
;WIDTH:0.454551
G1 X87.675 Y85.415 E.01854
;WIDTH:0.422726
G1 X88.17 Y85.294 E.01607
;WIDTH:0.417584
G1 X88.724 Y85.234 E.01736
;WIDTH:0.421499
G1 X89.389 Y85.202 E.02096
G1 X89.963 Y85.236 E.0181
;WIDTH:0.419999
G1 X90.509 Y85.321 E.01734
G1 X92.07 Y85.928 E.0525
G1 X92.075 Y87.932 E.06282
G1 X92.136 Y88.397 E.01471
G1 X92.241 Y88.683 E.00957
G1 X92.453 Y88.942 E.0105
G1 X92.936 Y89.13 E.01623
G1 X92.961 Y89.203 E.00242
M73 P2 R26
G1 X93.105 Y89.312 E.00567
G1 X93.115 Y89.458 E.00456
G1 X93.033 Y89.48 E.00267
G1 X91.539 Y89.314 E.04714
G1 X90.902 Y89.353 E.02
;WIDTH:0.445224
G1 X89.698 Y89.479 E.04048
;WIDTH:0.44041
G1 X89.51 Y89.45 E.0063
G1 X89.518 Y89.214 E.00779
G1 X89.647 Y89.152 E.00472
;WIDTH:0.445224
G1 X90.144 Y89.029 E.01713
G1 X90.435 Y88.791 E.01258
;WIDTH:0.419999
G1 X90.623 Y88.435 E.01261
G1 X90.698 Y87.984 E.01435
G1 X90.697 Y86.757 E.03847
G1 X90.576 Y85.902 E.0271
M204 P1000
G1 X90.644 Y85.755 F9000
G1 E-2.24 F4200
;WIPE_START
G1 F7200
G1 X90.516 Y85.738 E-.09671
G1 X90.408 Y85.683 E-.06716
G1 X89.89 Y85.608 E-.28981
G1 X89.27 Y85.578 E-.34405
G1 X89.064 Y85.587 E-.11427
;WIPE_END
G1 E-.048 F4200
G1 Z.4 F720
G1 X91.114 Y88.479 F9000
G1 Z.2 F720
G1 E3.2 F2400
M204 P800
;TYPE:Solid infill
;WIDTH:0.495415
G1 F1200
G1 X91.472 Y88.837 E.01904
M204 P1000
G1 E-2.24 F4200
;WIPE_START
G1 F7200
G1 X91.114 Y88.479 E-.28051
;WIPE_END
G1 E-.67949 F4200
G1 Z.4 F720
G1 X112.077 Y86.173 F9000
G1 Z.2 F720
G1 E3.2 F2400
M204 P800
;TYPE:Perimeter
;WIDTH:0.561846
G1 F1200
G1 X112.054 Y85.999 E.00755
G1 X112.634 Y86.232 E.02697
G1 X112.646 Y86.755 E.02257
;WIDTH:0.542481
G1 X112.654 Y88.015 E.05235
;WIDTH:0.541602
G1 X112.701 Y88.195 E.0077
;WIDTH:0.501068
G1 X112.749 Y88.374 E.00707
;WIDTH:0.460534
G1 X112.796 Y88.554 E.00645
;WIDTH:0.419999
G1 X112.996 Y88.975 E.01463
G1 X112.528 Y88.938 E.01471
G1 X111.763 Y88.985 E.02402
G1 X111.834 Y88.892 E.00365
G1 X112.024 Y88.439 E.0154
;WIDTH:0.460827
G1 X112.066 Y88.271 E.00603
;WIDTH:0.501654
G1 X112.107 Y88.102 E.00662
;WIDTH:0.542481
G1 X112.149 Y87.934 E.00721
G1 X112.147 Y86.757 E.04889
;WIDTH:0.546017
G1 X112.143 Y86.668 E.00373
;WIDTH:0.561846
G1 X112.085 Y86.232 E.01896
M204 P1000
G1 E-2.24 F4200
;WIPE_START
G1 F7200
G1 X112.054 Y85.999 E-.13017
G1 X112.634 Y86.232 E-.34632
G1 X112.646 Y86.755 E-.2899
G1 X112.648 Y87.017 E-.14562
;WIPE_END
G1 E-.048 F4200
G1 Z.4 F720
G1 X112.783 Y93.376 F9000
G1 Z.2 F720
G1 E3.2 F2400
M204 P800
;WIDTH:0.421314
G1 F1200
G1 X112.804 Y93.504 E.00411
G1 X112.683 Y93.696 E.00714
G1 X112.401 Y93.901 E.01097
G1 X112.111 Y94.012 E.00976
G1 X112.371 Y93.563 E.0163
G1 X112.497 Y93.187 E.01249
G1 X112.733 Y93.343 E.00892
M204 P1000
G1 E-2.24 F4200
;WIPE_START
G1 F7200
G1 X112.804 Y93.504 E-.098
G1 X112.683 Y93.696 E-.12578
G1 X112.401 Y93.901 E-.1932
G1 X112.111 Y94.012 E-.17184
G1 X112.371 Y93.563 E-.28715
G1 X112.391 Y93.501 E-.03603
;WIPE_END
G1 E-.048 F4200
G1 Z.4 F720
G1 X107.321 Y86.486 F9000
G1 Z.2 F720
G1 E3.2 F2400
M204 P800
;WIDTH:0.46972
G1 F1200
G1 X107.119 Y86.809 E.01352
G1 X106.938 Y87.208 E.01554
;WIDTH:0.484305
G1 X106.721 Y87.814 E.02362
;WIDTH:0.52232
G1 X106.625 Y88.251 E.01785
;WIDTH:0.560334
G1 X106.528 Y88.688 E.01926
;WIDTH:0.593908
G1 X106.458 Y89.331 E.02962
;WIDTH:0.597653
G1 X106.44 Y90.022 E.03186
G1 X106.463 Y90.712 E.03186
;WIDTH:0.588586
G1 X106.542 Y91.394 E.03114
;WIDTH:0.554588
G1 X106.705 Y92.29 E.03876
G1 X106.999 Y93.123 E.03759
G1 X106.744 Y92.878 E.01506
G1 X106.33 Y92.243 E.03222
;WIDTH:0.557089
G1 X106.021 Y91.386 E.03895
;WIDTH:0.59782
G1 X105.9 Y90.619 E.03586
;WIDTH:0.606091
G1 X105.882 Y89.645 E.04561
G1 X105.936 Y89.03 E.0289
;WIDTH:0.591784
G1 X106.12 Y88.17 E.04015
;WIDTH:0.547937
G1 X106.237 Y87.864 E.01375
;WIDTH:0.510633
G1 X106.354 Y87.558 E.01273
;WIDTH:0.473329
G1 X106.668 Y87.068 E.02083
;WIDTH:0.46972
G1 X106.931 Y86.788 E.01365
G1 X107.274 Y86.523 E.01536
M204 P1000
G1 E-2.24 F4200
;WIPE_START
G1 F7200
G1 X107.119 Y86.809 E-.18022
G1 X106.938 Y87.208 E-.2427
G1 X106.721 Y87.814 E-.35668
G1 X106.67 Y88.047 E-.1324
;WIPE_END
G1 E-.048 F4200
G1 Z.4 F720
G1 X111.579 Y85.842 F9000
G1 Z.2 F720
G1 E3.2 F2400
M204 P800
;TYPE:External perimeter
;WIDTH:0.420353
G1 F1200
G1 X111.528 Y85.738 E.00365
G1 X111.42 Y85.683 E.0038
;WIDTH:0.419408
G1 X110.902 Y85.608 E.01637
G1 X110.282 Y85.578 E.01944
;WIDTH:0.415728
G1 X109.734 Y85.601 E.01698
;WIDTH:0.416737
G1 X109.228 Y85.667 E.01589
;WIDTH:0.427298
G1 X108.743 Y85.794 E.01601
;WIDTH:0.455382
G1 X108.488 Y85.921 E.00976
;WIDTH:0.483466
G1 X108.233 Y86.047 E.01043
;WIDTH:0.526168
G1 X108.008 Y86.223 E.01147
;WIDTH:0.56887
G1 X107.783 Y86.399 E.01248
G1 X107.732 Y86.486 E.00439
;WIDTH:0.527171
G1 X107.594 Y86.772 E.01281
;WIDTH:0.491447
G1 X107.455 Y87.058 E.01186
;WIDTH:0.455723
G1 X107.317 Y87.344 E.01092
;WIDTH:0.419999
G1 X107.124 Y87.887 E.01804
G1 X106.974 Y88.726 E.02674
G1 X106.922 Y89.343 E.01942
G1 X106.906 Y90.01 E.02091
G1 X106.923 Y90.673 E.02081
G1 X106.98 Y91.318 E.02028
G1 X107.126 Y92.148 E.02645
G1 X107.384 Y92.903 E.02499
G1 X107.731 Y93.495 E.02153
;WIDTH:0.442434
G1 X108.051 Y93.856 E.01602
;WIDTH:0.448303
G1 X108.259 Y93.987 E.00829
G1 X108.801 Y94.247 E.02027
;WIDTH:0.427228
G1 X109.378 Y94.39 E.01901
;WIDTH:0.416364
G1 X110.244 Y94.446 E.02694
;WIDTH:0.418153
G1 X110.679 Y94.409 E.01363
;WIDTH:0.428826
G1 X111.113 Y94.311 E.01428
;WIDTH:0.447868
G1 X111.521 Y94.106 E.01537
G1 X111.856 Y93.732 E.01691
;WIDTH:0.419999
G1 X112.075 Y93.301 E.01516
G1 X112.203 Y92.734 E.0182
G1 X112.346 Y92.756 E.00455
G1 X112.722 Y92.869 E.01231
G1 X113.086 Y93.134 E.01413
G1 X113.182 Y93.333 E.0069
G1 X113.194 Y93.531 E.00623
G1 X113.108 Y93.789 E.00853
G1 X112.868 Y94.055 E.01123
G1 X112.436 Y94.293 E.01547
;WIDTH:0.427222
G1 X111.941 Y94.474 E.01682
;WIDTH:0.442339
G1 X111.356 Y94.639 E.02021
G1 X110.772 Y94.776 E.01991
;WIDTH:0.419251
G1 X110.253 Y94.819 E.01631
;WIDTH:0.429723
G1 X109.74 Y94.808 E.01649
G1 X109.016 Y94.705 E.02353
;WIDTH:0.42863
G1 X108.536 Y94.556 E.01611
;WIDTH:0.448303
G1 X107.508 Y94.073 E.03831
;WIDTH:0.419999
G1 X107.016 Y93.754 E.01838
G1 X106.406 Y93.172 E.02644
G1 X105.94 Y92.467 E.0265
G1 X105.614 Y91.632 E.0281
G1 X105.436 Y90.691 E.03003
G1 X105.409 Y89.645 E.0328
G1 X105.469 Y89.022 E.01962
G1 X105.717 Y87.989 E.03333
G1 X106.08 Y87.208 E.02701
G1 X106.391 Y86.774 E.01673
G1 X106.778 Y86.379 E.01733
;WIDTH:0.469623
G1 X107.017 Y86.242 E.00978
;WIDTH:0.519247
G1 X107.255 Y86.104 E.01091
;WIDTH:0.56887
G1 X107.722 Y85.845 E.02336
;WIDTH:0.530768
G1 X107.951 Y85.724 E.01049
;WIDTH:0.492666
G1 X108.179 Y85.602 E.00967
;WIDTH:0.454563
G1 X108.687 Y85.415 E.01854
;WIDTH:0.422757
G1 X109.182 Y85.294 E.01607
;WIDTH:0.417589
G1 X109.736 Y85.234 E.01736
;WIDTH:0.421498
G1 X110.401 Y85.202 E.02096
G1 X110.975 Y85.236 E.0181
;WIDTH:0.419999
G1 X111.521 Y85.321 E.01734
G1 X113.082 Y85.928 E.0525
G1 X113.087 Y87.932 E.06282
G1 X113.148 Y88.396 E.01468
G1 X113.253 Y88.683 E.00959
G1 X113.465 Y88.942 E.0105
G1 X113.948 Y89.13 E.01623
G1 X113.973 Y89.203 E.00242
G1 X114.117 Y89.312 E.00567
G1 X114.127 Y89.458 E.00456
G1 X114.045 Y89.48 E.00267
G1 X112.551 Y89.314 E.04714
G1 X111.914 Y89.353 E.02
;WIDTH:0.445224
G1 X110.711 Y89.479 E.04048
;WIDTH:0.440411
G1 X110.522 Y89.45 E.0063
G1 X110.53 Y89.214 E.0078
G1 X110.659 Y89.152 E.00472
;WIDTH:0.445224
G1 X111.156 Y89.029 E.01713
G1 X111.447 Y88.791 E.01257
;WIDTH:0.419999
G1 X111.635 Y88.435 E.01263
G1 X111.711 Y87.984 E.01433
G1 X111.709 Y86.757 E.03847
G1 X111.588 Y85.902 E.0271
M204 P1000
G1 X111.656 Y85.755 F9000
G1 E-2.24 F4200
;WIPE_START
G1 F7200
G1 X111.528 Y85.738 E-.09672
G1 X111.42 Y85.683 E-.06715
G1 X110.902 Y85.608 E-.28982
G1 X110.282 Y85.578 E-.34405
G1 X110.076 Y85.587 E-.11427
;WIPE_END
G1 E-.048 F4200
G1 Z.4 F720
G1 X112.126 Y88.48 F9000
G1 Z.2 F720
G1 E3.2 F2400
M204 P800
;TYPE:Solid infill
;WIDTH:0.495415
G1 F1200
G1 X112.484 Y88.837 E.01904
M204 P1000
G1 E-2.24 F4200
;WIPE_START
G1 F7200
G1 X112.126 Y88.48 E-.28041
;WIPE_END
G1 E-.67959 F4200
G1 Z.4 F720
G1 X48.089 Y90.107 F9000
G1 Z.2 F720
G1 E3.2 F2400
M204 P800
;TYPE:Perimeter
;WIDTH:0.476406
G1 F1200
G1 X47.355 Y90.429 E.02892
;WIDTH:0.502477
G1 X46.453 Y90.907 E.03899
;WIDTH:0.512144
G1 X45.991 Y91.262 E.02271
;WIDTH:0.517441
G1 X45.81 Y91.466 E.01077
G1 X45.437 Y92.031 E.02672
;WIDTH:0.505487
G1 X45.304 Y92.469 E.01762
G1 X45.261 Y93.017 E.02114
G1 X45.159 Y92.724 E.01195
G1 X45.113 Y92.292 E.01668
